src/assets/aboutPage/impactIcon.svg

<svg width="95" height="95" viewBox="0 0 95 95" fill="none" xmlns="http://www.w3.org/2000/svg">
<mask id="path-1-inside-1" fill="white">
<path fill-rule="evenodd" clip-rule="evenodd" d="M43.0936 19.869C40.6672 22.2458 36.8048 22.2458 34.3784 19.869C31.952 17.4921 31.952 13.5307 34.3784 11.1043L43.9849 1.44833C44.91 0.521091 46.1661 0 47.4759 0C48.7857 0 50.0418 0.521091 50.9669 1.44833L60.6229 11.1043C63.0493 13.5307 63.0493 17.4426 60.6229 19.869C58.1965 22.2458 54.3341 22.2458 51.9077 19.869L47.5007 15.5114L43.0936 19.869ZM75.1311 43.0926C72.7542 40.6663 72.7542 36.8039 75.1311 34.3775C77.5079 31.9511 81.4694 31.9511 83.8958 34.328L93.5517 43.9839C95.4829 45.9151 95.4829 49.0348 93.5517 50.966L83.8958 60.6219C81.4694 63.0483 77.5575 63.0483 75.1311 60.6219C72.7542 58.1956 72.7542 54.3332 75.1311 51.9068L79.4887 47.4997L75.1311 43.0926ZM1.4484 44.0337L11.1044 34.3777C13.5308 31.9514 17.4922 31.9514 19.869 34.3777C22.2459 36.8041 22.2459 40.6665 19.869 43.0929L15.5115 47.5L19.869 51.9566C22.2459 54.3829 22.2459 58.2453 19.869 60.6717C17.4427 63.0981 13.5308 63.0981 11.1044 60.6717L1.4484 51.0157C-0.482799 49.0845 -0.482799 45.9649 1.4484 44.0337ZM47.5007 79.4887L43.0936 75.1311C40.6672 72.7542 36.8048 72.7542 34.3784 75.1311C31.952 77.5575 31.952 81.4694 34.3784 83.8958L44.0344 93.5517C45.9656 95.4829 49.0852 95.4829 51.0164 93.5517L60.6724 83.8958C63.0988 81.4694 63.0988 77.5575 60.6724 75.1311C58.246 72.7542 54.3836 72.7542 51.9573 75.1311L47.5007 79.4887Z"/>
</mask>
<path fill-rule="evenodd" clip-rule="evenodd" d="M43.0936 19.869C40.6672 22.2458 36.8048 22.2458 34.3784 19.869C31.952 17.4921 31.952 13.5307 34.3784 11.1043L43.9849 1.44833C44.91 0.521091 46.1661 0 47.4759 0C48.7857 0 50.0418 0.521091 50.9669 1.44833L60.6229 11.1043C63.0493 13.5307 63.0493 17.4426 60.6229 19.869C58.1965 22.2458 54.3341 22.2458 51.9077 19.869L47.5007 15.5114L43.0936 19.869ZM75.1311 43.0926C72.7542 40.6663 72.7542 36.8039 75.1311 34.3775C77.5079 31.9511 81.4694 31.9511 83.8958 34.328L93.5517 43.9839C95.4829 45.9151 95.4829 49.0348 93.5517 50.966L83.8958 60.6219C81.4694 63.0483 77.5575 63.0483 75.1311 60.6219C72.7542 58.1956 72.7542 54.3332 75.1311 51.9068L79.4887 47.4997L75.1311 43.0926ZM1.4484 44.0337L11.1044 34.3777C13.5308 31.9514 17.4922 31.9514 19.869 34.3777C22.2459 36.8041 22.2459 40.6665 19.869 43.0929L15.5115 47.5L19.869 51.9566C22.2459 54.3829 22.2459 58.2453 19.869 60.6717C17.4427 63.0981 13.5308 63.0981 11.1044 60.6717L1.4484 51.0157C-0.482799 49.0845 -0.482799 45.9649 1.4484 44.0337ZM47.5007 79.4887L43.0936 75.1311C40.6672 72.7542 36.8048 72.7542 34.3784 75.1311C31.952 77.5575 31.952 81.4694 34.3784 83.8958L44.0344 93.5517C45.9656 95.4829 49.0852 95.4829 51.0164 93.5517L60.6724 83.8958C63.0988 81.4694 63.0988 77.5575 60.6724 75.1311C58.246 72.7542 54.3836 72.7542 51.9573 75.1311L47.5007 79.4887Z" fill="#EB850E"/>
<path d="M34.3784 19.869L37.1775 17.0115L37.1775 17.0115L34.3784 19.869ZM43.0936 19.869L45.8927 22.7264L45.8993 22.7199L45.906 22.7133L43.0936 19.869ZM34.3784 11.1043L37.2069 13.9327L37.2141 13.9255L34.3784 11.1043ZM43.9849 1.44833L41.1533 -1.37692L41.1492 -1.37282L43.9849 1.44833ZM50.9669 1.44833L48.1353 4.27357L48.1385 4.27675L50.9669 1.44833ZM60.6229 11.1043L57.7945 13.9327V13.9327L60.6229 11.1043ZM60.6229 19.869L63.422 22.7264L63.4367 22.712L63.4513 22.6974L60.6229 19.869ZM51.9077 19.869L49.0953 22.7133L49.102 22.7199L49.1086 22.7264L51.9077 19.869ZM47.5007 15.5114L50.3131 12.667L47.5007 9.88623L44.6883 12.667L47.5007 15.5114ZM75.1311 34.3775L72.2737 31.5784L72.2737 31.5784L75.1311 34.3775ZM75.1311 43.0926L72.2737 45.8917L72.2802 45.8984L72.2867 45.905L75.1311 43.0926ZM83.8958 34.328L86.7242 31.4995L86.7096 31.485L86.6949 31.4705L83.8958 34.328ZM93.5517 43.9839L90.7233 46.8124L90.7233 46.8124L93.5517 43.9839ZM93.5517 50.966L90.7233 48.1375L93.5517 50.966ZM83.8958 60.6219L86.7242 63.4504L86.7242 63.4504L83.8958 60.6219ZM75.1311 60.6219L72.2737 63.4211L72.2881 63.4358L72.3027 63.4504L75.1311 60.6219ZM75.1311 51.9068L72.2867 49.0944L72.2802 49.101L72.2737 49.1077L75.1311 51.9068ZM79.4887 47.4997L82.333 50.3121L85.1138 47.4997L82.333 44.6873L79.4887 47.4997ZM11.1044 34.3777L13.9328 37.2062H13.9328L11.1044 34.3777ZM1.4484 44.0337L4.27682 46.8621L4.27682 46.8621L1.4484 44.0337ZM19.869 34.3777L17.0116 37.1769L17.0116 37.1769L19.869 34.3777ZM19.869 43.0929L22.7134 45.9053L22.72 45.8987L22.7265 45.892L19.869 43.0929ZM15.5115 47.5L12.6671 44.6876L9.9018 47.4843L12.6514 50.2964L15.5115 47.5ZM19.869 51.9566L17.009 54.753L17.0116 54.7557L19.869 51.9566ZM19.869 60.6717L22.6975 63.5001L22.7121 63.4856L22.7265 63.4708L19.869 60.6717ZM11.1044 60.6717L13.9328 57.8433H13.9328L11.1044 60.6717ZM1.4484 51.0157L4.27682 48.1873L4.27682 48.1873L1.4484 51.0157ZM43.0936 75.1311L45.906 72.2867L45.8993 72.2802L45.8927 72.2737L43.0936 75.1311ZM47.5007 79.4887L44.6883 82.333L47.485 85.0983L50.2971 82.3487L47.5007 79.4887ZM34.3784 75.1311L31.5793 72.2737L31.5646 72.2881L31.55 72.3027L34.3784 75.1311ZM34.3784 83.8958L37.2069 81.0673L34.3784 83.8958ZM44.0344 93.5517L46.8628 90.7233L46.8628 90.7233L44.0344 93.5517ZM51.0164 93.5517L48.188 90.7233L48.188 90.7233L51.0164 93.5517ZM60.6724 83.8958L57.844 81.0673L60.6724 83.8958ZM60.6724 75.1311L63.5008 72.3027L63.4862 72.2881L63.4715 72.2737L60.6724 75.1311ZM51.9573 75.1311L54.7537 77.9911L54.7564 77.9885L51.9573 75.1311ZM31.5793 22.7264C35.5608 26.6267 41.9112 26.6267 45.8927 22.7264L40.2944 17.0115C39.4232 17.865 38.0488 17.865 37.1775 17.0115L31.5793 22.7264ZM31.55 8.27588C27.5778 12.248 27.5354 18.7651 31.5793 22.7264L37.1775 17.0115C36.3686 16.2191 36.3263 14.8133 37.2069 13.9327L31.55 8.27588ZM41.1492 -1.37282L31.5427 8.28316L37.2141 13.9255L46.8206 4.26947L41.1492 -1.37282ZM47.4759 -4C45.1036 -4 42.8288 -3.05625 41.1533 -1.37691L46.8165 4.27356C46.9912 4.09843 47.2285 4 47.4759 4V-4ZM53.7985 -1.37691C52.123 -3.05624 49.8482 -4 47.4759 -4V4C47.7233 4 47.9605 4.09843 48.1353 4.27356L53.7985 -1.37691ZM63.4513 8.27588L53.7953 -1.3801L48.1385 4.27675L57.7945 13.9327L63.4513 8.27588ZM63.4513 22.6974C67.4398 18.7089 67.4398 12.2644 63.4513 8.27588L57.7945 13.9327C58.6587 14.797 58.6587 16.1763 57.7945 17.0405L63.4513 22.6974ZM49.1086 22.7264C53.0902 26.6267 59.4405 26.6267 63.422 22.7264L57.8238 17.0115C56.9525 17.865 55.5781 17.865 54.7069 17.0115L49.1086 22.7264ZM44.6883 18.3558L49.0953 22.7133L54.7201 17.0246L50.3131 12.667L44.6883 18.3558ZM45.906 22.7133L50.3131 18.3558L44.6883 12.667L40.2812 17.0246L45.906 22.7133ZM72.2737 31.5784C68.3734 35.5599 68.3734 41.9102 72.2737 45.8917L77.9885 40.2935C77.1351 39.4223 77.1351 38.0478 77.9885 37.1766L72.2737 31.5784ZM86.6949 31.4705C82.7251 27.5817 76.2302 27.5394 72.2737 31.5784L77.9885 37.1766C78.7857 36.3628 80.2137 36.3205 81.0966 37.1854L86.6949 31.4705ZM96.3802 41.1555L86.7242 31.4995L81.0673 37.1564L90.7233 46.8124L96.3802 41.1555ZM96.3802 53.7944C99.8735 50.3011 99.8735 44.6488 96.3801 41.1555L90.7233 46.8124C91.0924 47.1815 91.0924 47.7684 90.7233 48.1375L96.3802 53.7944ZM86.7242 63.4504L96.3802 53.7944L90.7233 48.1375L81.0673 57.7935L86.7242 63.4504ZM72.3027 63.4504C76.2911 67.4388 82.7357 67.4388 86.7242 63.4504L81.0673 57.7935C80.203 58.6578 78.8238 58.6578 77.9595 57.7935L72.3027 63.4504ZM72.2737 49.1077C68.3734 53.0892 68.3734 59.4395 72.2737 63.4211L77.9885 57.8228C77.1351 56.9516 77.1351 55.5771 77.9885 54.7059L72.2737 49.1077ZM76.6443 44.6873L72.2867 49.0944L77.9754 54.7192L82.333 50.3121L76.6443 44.6873ZM72.2867 45.905L76.6443 50.3121L82.333 44.6873L77.9754 40.2802L72.2867 45.905ZM8.27596 31.5493L-1.38003 41.2053L4.27682 46.8621L13.9328 37.2062L8.27596 31.5493ZM22.7265 31.5786C18.7652 27.5348 12.2481 27.5771 8.27596 31.5493L13.9328 37.2062C14.8134 36.3256 16.2192 36.368 17.0116 37.1769L22.7265 31.5786ZM22.7265 45.892C26.6268 41.9105 26.6268 35.5601 22.7265 31.5786L17.0116 37.1769C17.865 38.0481 17.865 39.4225 17.0116 40.2938L22.7265 45.892ZM18.3558 50.3124L22.7134 45.9053L17.0247 40.2805L12.6671 44.6876L18.3558 50.3124ZM22.7291 49.1601L18.3715 44.7035L12.6514 50.2964L17.009 54.753L22.7291 49.1601ZM22.7265 63.4708C26.6268 59.4893 26.6268 53.139 22.7265 49.1574L17.0116 54.7557C17.865 55.6269 17.865 57.0014 17.0116 57.8726L22.7265 63.4708ZM8.27596 63.5001C12.2644 67.4886 18.709 67.4886 22.6975 63.5001L17.0406 57.8433C16.1763 58.7076 14.7971 58.7076 13.9328 57.8433L8.27596 63.5001ZM-1.38003 53.8442L8.27596 63.5001L13.9328 57.8433L4.27682 48.1873L-1.38003 53.8442ZM-1.38003 41.2053C-4.87332 44.6986 -4.87332 50.3509 -1.38003 53.8442L4.27682 48.1873C3.90773 47.8182 3.90773 47.2312 4.27682 46.8621L-1.38003 41.2053ZM40.2812 77.9755L44.6883 82.333L50.3131 76.6443L45.906 72.2867L40.2812 77.9755ZM37.1775 77.9885C38.0488 77.1351 39.4232 77.1351 40.2944 77.9885L45.8927 72.2737C41.9112 68.3734 35.5608 68.3734 31.5793 72.2737L37.1775 77.9885ZM37.2069 81.0673C36.3426 80.2031 36.3426 78.8238 37.2069 77.9595L31.55 72.3027C27.5615 76.2911 27.5615 82.7357 31.55 86.7242L37.2069 81.0673ZM46.8628 90.7233L37.2069 81.0673L31.55 86.7242L41.206 96.3802L46.8628 90.7233ZM48.188 90.7233C47.8189 91.0924 47.2319 91.0924 46.8628 90.7233L41.206 96.3802C44.6993 99.8735 50.3516 99.8735 53.8448 96.3802L48.188 90.7233ZM57.844 81.0673L48.188 90.7233L53.8448 96.3802L63.5008 86.7242L57.844 81.0673ZM57.844 77.9595C58.7082 78.8238 58.7082 80.2031 57.844 81.0673L63.5008 86.7242C67.4893 82.7357 67.4893 76.2911 63.5008 72.3027L57.844 77.9595ZM54.7564 77.9885C55.6276 77.1351 57.0021 77.1351 57.8733 77.9885L63.4715 72.2737C59.49 68.3734 53.1397 68.3734 49.1581 72.2737L54.7564 77.9885ZM50.2971 82.3487L54.7537 77.9911L49.1608 72.2711L44.7042 76.6286L50.2971 82.3487Z" fill="white" mask="url(#path-1-inside-1)"/>
<path fill-rule="evenodd" clip-rule="evenodd" d="M47.4994 32.6447C39.2992 32.6447 32.644 39.2999 32.644 47.5C32.644 55.7002 39.2992 62.3554 47.4994 62.3554C55.6996 62.3554 62.3548 55.7002 62.3548 47.5C62.3548 39.2999 55.6996 32.6447 47.4994 32.6447ZM46.0139 59.2803C40.1461 58.5524 35.6152 53.561 35.6152 47.5C35.6152 46.579 35.734 45.7025 35.9272 44.8409L43.0429 51.9566V53.4422C43.0429 55.0763 44.3799 56.4132 46.0139 56.4132V59.2803ZM53.4415 53.4422C54.7785 53.4422 55.8778 54.3038 56.2641 55.5071C58.1953 53.3977 59.3837 50.59 59.3837 47.5001C59.3837 42.5235 56.3086 38.2601 51.956 36.4923V37.1013C51.956 38.7354 50.619 40.0724 48.9849 40.0724H46.0139V43.0435C46.0139 43.8605 45.3454 44.529 44.5283 44.529H41.5573V47.5001H50.4705C51.2875 47.5001 51.956 48.1686 51.956 48.9856V53.4422H53.4415Z" fill="#EB850E"/>
</svg>

<svg width="95" height="95" fill="none" xmlns="http://www.w3.org/2000/svg"><mask id="prefix__a" fill="#fff"><path fill-rule="evenodd" clip-rule="evenodd" d="M43.094 19.869a6.217 6.217 0 01-8.716 0c-2.426-2.377-2.426-6.338 0-8.765l9.607-9.656a4.931 4.931 0 016.982 0l9.656 9.656a6.187 6.187 0 010 8.765 6.217 6.217 0 01-8.715 0L47.5 15.511l-4.407 4.358zM75.13 43.093a6.217 6.217 0 010-8.716c2.377-2.426 6.338-2.426 8.765-.049l9.656 9.656a4.931 4.931 0 010 6.982l-9.656 9.656a6.187 6.187 0 01-8.765 0 6.217 6.217 0 010-8.715L79.49 47.5l-4.358-4.407zm-73.683.94l9.656-9.655c2.427-2.427 6.388-2.427 8.765 0a6.217 6.217 0 010 8.715L15.512 47.5l4.357 4.457a6.217 6.217 0 010 8.715 6.186 6.186 0 01-8.765 0l-9.656-9.656a4.931 4.931 0 010-6.982zM47.501 79.49l-4.407-4.358a6.217 6.217 0 00-8.716 0 6.187 6.187 0 000 8.765l9.656 9.656a4.931 4.931 0 006.982 0l9.656-9.656a6.187 6.187 0 000-8.765 6.217 6.217 0 00-8.715 0l-4.456 4.358z"/></mask><path fill-rule="evenodd" clip-rule="evenodd" d="M43.094 19.869a6.217 6.217 0 01-8.716 0c-2.426-2.377-2.426-6.338 0-8.765l9.607-9.656a4.931 4.931 0 016.982 0l9.656 9.656a6.187 6.187 0 010 8.765 6.217 6.217 0 01-8.715 0L47.5 15.511l-4.407 4.358zM75.13 43.093a6.217 6.217 0 010-8.716c2.377-2.426 6.338-2.426 8.765-.049l9.656 9.656a4.931 4.931 0 010 6.982l-9.656 9.656a6.187 6.187 0 01-8.765 0 6.217 6.217 0 010-8.715L79.49 47.5l-4.358-4.407zm-73.683.94l9.656-9.655c2.427-2.427 6.388-2.427 8.765 0a6.217 6.217 0 010 8.715L15.512 47.5l4.357 4.457a6.217 6.217 0 010 8.715 6.186 6.186 0 01-8.765 0l-9.656-9.656a4.931 4.931 0 010-6.982zM47.501 79.49l-4.407-4.358a6.217 6.217 0 00-8.716 0 6.187 6.187 0 000 8.765l9.656 9.656a4.931 4.931 0 006.982 0l9.656-9.656a6.187 6.187 0 000-8.765 6.217 6.217 0 00-8.715 0l-4.456 4.358z" fill="#EB850E"/><path d="M34.378 19.869l2.8-2.857-2.8 2.857zm8.716 0l2.799 2.857.006-.006.007-.007-2.812-2.844zm-8.716-8.765l2.829 2.829.007-.008-2.836-2.82zm9.607-9.656l-2.832-2.825-.004.004 2.836 2.821zm6.982 0l-2.832 2.826.004.003 2.828-2.829zm9.656 9.656l-2.828 2.829 2.828-2.829zm0 8.765l2.799 2.857.015-.014.014-.015-2.828-2.828zm-8.715 0l-2.813 2.844.007.007.007.006 2.799-2.857zM47.5 15.511l2.812-2.844-2.812-2.78-2.813 2.78 2.813 2.844zm27.63 18.866l-2.857-2.799 2.857 2.8zm0 8.716l-2.857 2.799.006.006.007.007 2.844-2.812zm8.765-8.765l2.828-2.829-.014-.014-.015-.014-2.8 2.857zm9.656 9.656l-2.829 2.828 2.829-2.828zm0 6.982l-2.829-2.828 2.829 2.828zm-9.656 9.656l2.828 2.828-2.828-2.828zm-8.765 0l-2.857 2.8.014.014.015.014 2.828-2.828zm0-8.715l-2.844-2.813-.007.007-.006.007 2.857 2.799zM79.49 47.5l2.844 2.812 2.78-2.812-2.78-2.813-2.844 2.813zM11.104 34.378l2.829 2.828-2.829-2.828zm-9.656 9.656l2.829 2.828-2.829-2.828zm18.421-9.656l-2.857 2.799 2.857-2.8zm0 8.715l2.844 2.812.007-.006.007-.007-2.858-2.8zM15.512 47.5l-2.845-2.812-2.765 2.796 2.75 2.812 2.86-2.796zm4.357 4.457l-2.86 2.796.003.003 2.857-2.8zm0 8.715l2.829 2.828.014-.014.015-.015-2.858-2.8zm-8.765 0l2.829-2.829-2.829 2.829zm-9.656-9.656l2.829-2.829-2.829 2.829zM43.094 75.13l2.812-2.844-.007-.007-.006-.006-2.8 2.857zM47.5 79.49l-2.813 2.844 2.797 2.765 2.812-2.75-2.796-2.86zM34.378 75.13l-2.799-2.857-.014.014-.015.015 2.828 2.828zm0 8.765l2.829-2.829-2.829 2.829zm9.656 9.656l2.829-2.829-2.829 2.829zm6.982 0l-2.828-2.829 2.828 2.829zm9.656-9.656l-2.828-2.829 2.828 2.829zm0-8.765l2.829-2.828-.015-.015-.014-.014-2.8 2.857zm-8.715 0l2.797 2.86.002-.002-2.799-2.858zM31.58 22.726a10.217 10.217 0 0014.314 0l-5.599-5.714a2.217 2.217 0 01-3.116 0l-5.599 5.714zm-.029-14.45c-3.972 3.972-4.015 10.49.03 14.45l5.598-5.714c-.81-.793-.852-2.199.029-3.08L31.55 8.277zm9.6-9.649l-9.607 9.656 5.671 5.643 9.607-9.657-5.672-5.642zM47.475-4a8.931 8.931 0 00-6.323 2.623l5.663 5.65a.931.931 0 01.66-.273v-8zm6.322 2.623A8.931 8.931 0 0047.476-4v8c.247 0 .485.098.66.274l5.662-5.65zm9.653 9.653L53.795-1.38l-5.657 5.657 9.657 9.656 5.656-5.657zm0 14.421a10.187 10.187 0 000-14.421l-5.657 5.657a2.187 2.187 0 010 3.108l5.657 5.656zm-14.342.03a10.217 10.217 0 0014.313 0l-5.598-5.715a2.217 2.217 0 01-3.117 0l-5.598 5.714zm-4.42-4.371l4.406 4.357 5.625-5.688-4.407-4.358-5.625 5.689zm1.217 4.357l4.407-4.357-5.625-5.689-4.407 4.358 5.625 5.688zm26.368 8.865a10.217 10.217 0 000 14.314l5.715-5.599a2.217 2.217 0 010-3.116l-5.715-5.599zm14.42-.107c-3.969-3.89-10.464-3.932-14.42.107l5.715 5.599c.797-.814 2.225-.856 3.108.008l5.598-5.715zm9.686 9.685L86.724 31.5l-5.657 5.656 9.656 9.656 5.657-5.656zm0 12.638a8.931 8.931 0 000-12.638l-5.657 5.656c.37.37.37.956 0 1.326l5.657 5.656zm-9.656 9.656l9.656-9.656-5.657-5.656-9.656 9.656 5.657 5.656zm-14.421 0a10.187 10.187 0 0014.421 0l-5.657-5.657a2.187 2.187 0 01-3.107 0l-5.657 5.657zm-.03-14.342a10.217 10.217 0 000 14.313l5.716-5.598a2.217 2.217 0 010-3.117l-5.715-5.598zm4.371-4.42l-4.357 4.406 5.688 5.625 4.358-4.407-5.689-5.625zm-4.357 1.217l4.357 4.407 5.689-5.625-4.358-4.407-5.688 5.625zM8.276 31.549l-9.656 9.656 5.657 5.657 9.656-9.656-5.657-5.657zm14.45.03c-3.96-4.044-10.478-4.002-14.45-.03l5.657 5.657c.88-.88 2.286-.838 3.079-.03l5.715-5.597zm0 14.313a10.217 10.217 0 000-14.313l-5.714 5.598a2.217 2.217 0 010 3.117l5.715 5.598zm-4.37 4.42l4.357-4.407-5.688-5.624-4.358 4.407 5.689 5.624zm4.373-1.152l-4.357-4.456-5.72 5.592 4.357 4.457 5.72-5.593zm-.002 14.31a10.217 10.217 0 000-14.313l-5.715 5.599a2.217 2.217 0 010 3.117l5.715 5.598zm-14.451.03a10.187 10.187 0 0014.422 0l-5.657-5.657a2.187 2.187 0 01-3.108 0L8.276 63.5zm-9.656-9.656L8.276 63.5l5.657-5.657-9.656-9.656-5.657 5.657zm0-12.639a8.931 8.931 0 000 12.64l5.657-5.658a.931.931 0 010-1.325l-5.657-5.657zm41.661 36.77l4.407 4.358 5.625-5.689-4.407-4.357-5.625 5.688zm-3.103.014a2.217 2.217 0 013.116 0l5.599-5.715a10.217 10.217 0 00-14.314 0l5.599 5.715zm.029 3.078a2.187 2.187 0 010-3.107l-5.657-5.657a10.186 10.186 0 000 14.421l5.657-5.657zm9.656 9.656l-9.656-9.656-5.657 5.657 9.656 9.656 5.657-5.657zm1.325 0a.931.931 0 01-1.325 0l-5.657 5.657a8.931 8.931 0 0012.639 0l-5.657-5.657zm9.656-9.656l-9.656 9.656 5.657 5.657 9.656-9.656-5.657-5.657zm0-3.107a2.187 2.187 0 010 3.107l5.657 5.657a10.186 10.186 0 000-14.421l-5.657 5.657zm-3.088.029a2.217 2.217 0 013.117 0l5.599-5.715a10.217 10.217 0 00-14.314 0l5.598 5.715zm-4.459 4.36l4.457-4.358-5.593-5.72-4.457 4.358 5.593 5.72z" fill="#fff" mask="url(#prefix__a)"/><path fill-rule="evenodd" clip-rule="evenodd" d="M47.5 32.645c-8.2 0-14.856 6.655-14.856 14.855s6.655 14.855 14.855 14.855S62.355 55.7 62.355 47.5 55.7 32.645 47.499 32.645zM46.013 59.28c-5.868-.728-10.399-5.719-10.399-11.78 0-.921.119-1.797.312-2.66l7.116 7.117v1.485a2.98 2.98 0 002.97 2.971v2.867zm7.427-5.838c1.337 0 2.437.862 2.823 2.065a11.82 11.82 0 003.12-8.007c0-4.977-3.075-9.24-7.428-11.008v.61a2.98 2.98 0 01-2.971 2.97h-2.971v2.971a1.49 1.49 0 01-1.486 1.486h-2.97V47.5h8.913a1.49 1.49 0 011.485 1.486v4.456h1.485z" fill="#EB850E"/></svg>
